X:1
T:Simple scale
C:Unknown
M:4/4
L:1/4
Q:120
K:C
C, D'2 E F | G A B c | c B A G | F E D C | c e f g | a g f e |
c B A G | F E D C |
